X:1
T:Lost Goose
M:C
K:Gmix
B,A,|"G"G,2G,G, B,G,B,C|DG2DG2B,A,|G,2G,G, B,G,B,C|"(F)"DEDB, G,2 B,A,|
"G"G,2G,G, B,G,B,C|DG2DG2B,A,|dedB "D"ABAG|"C"E G2 E "G"G2z:|
|:"G"d2g2g4|gage dee2|"F"e2f2f4|fgfe def2|
"G"d2g2g4|bgge dABc|"G"dedB "D"ABAG|"C"EG2 "G"EG4:|
